X: 171
T: Sir Patrick Spens
M:4/4
R:reel
L:1/8
Z:added by Alf warnock alf0@rogers.com
K:Gm
P: Intro and ending
[D2G2]|"Bb"[F4B4] "C"[G4c4]| "Dm"[A6d6][D2G2]|"Bb"[F4B4] "C"[G4c4]| "Dm"[A8d8]| "Bb"[F4B4] "C"[G4c4]| "Dm"[A4d4] "F"[D4A4]| "Gm"[G8d8]-|"Gm"[G8d8]|
"Gm"d2g2 g2g2|"F"a2f2 "Gm"g2d=e|"F"f2f2 f2c2|"Dm"d6d2|
"Gm"d2d2 d2d2|"F"c2A2 F2GA|"Gm"B2B2 "Dm"A2F2|"Gm"G8|
"Gm"d2g2 g2g2|"F"a2f2 "Gm"g2d=e|"F"f2f2 f2c2|"Dm"d6d2|
"Gm"d2d2 d2d2|"F"c2A2 F2GA|"Gm"B2B2 "Dm"A2F2|"Gm"G8|
P:Between verses
"Bb"[F4B4] "C"[G4c4]| "Dm"[A4d4] "F"[D4A4]| "Gm"[G8d8]-|"Gm"[G8d8]|

